;FLAVOR:Marlin
;TIME:1756
;Filament used: 1.96937m
;Layer height: 0.2
;MINX:119.66
;MINY:129.66
;MINZ:0.2
;MAXX:182.34
;MAXY:172.34
;MAXZ:9
;Generated with Cura_SteamEngine 5.3.1
M140 S60
M105
M190 S60
M104 S195
M105
M109 S195
M82 ;absolute extrusion mode
; Script based on an original created by tjjfvi (https://github.com/tjjfvi)
; An up-to-date version of the tjjfvi's original script can be found
; here:  https://csi.t6.fyi/
; Note - This script will only work in Cura V4.2 and above!
; --- Global Settings
; layer_height = 0.2
; smooth_spiralized_contours = True
; magic_mesh_surface_mode = normal
; machine_extruder_count = 1
; --- Single Extruder Settings
; speed_z_hop = 20
; retraction_amount = 6
; retraction_hop = 0.075
; retraction_hop_enabled = True
; retraction_enable = True
; retraction_speed = 40
; retraction_retract_speed = 40
; retraction_prime_speed = 40
; speed_travel = 100

G28 ;Home
G1 Z15.0 F6000 ;Move the platform down 15mm
;Prime the extruder
G92 E0
G1 F200 E3
G92 E0
G92 E0
G92 E0
G1 F2400 E-6
;LAYER_COUNT:45
;LAYER:0
M107
M204 S3000
M205 X10 Y10
G1 F1200 Z0.275
G0 F6000 X121.211 Y131.168 Z0.275
M204 S300
M205 X8 Y8
;TYPE:SKIRT
G1 F1200 Z0.2
G1 F2400 E0
G1 X121.603 Y130.839 E0.02717
G1 X122.042 Y130.575 E0.05436
G1 X122.516 Y130.383 E0.08151
G1 X123.014 Y130.266 E0.10866
G1 X123.518 Y130.221 E0.13552
G1 X177.84 Y130.22 E3.01911
G1 X178.538 Y130.23 E3.05616
G1 X179.048 Y130.278 E3.08335
G1 X179.544 Y130.404 E3.11052
G1 X180.014 Y130.605 E3.13765
G1 X180.448 Y130.878 E3.16487
G1 X180.833 Y131.214 E3.192
G1 X181.162 Y131.606 E3.21916
G1 X181.426 Y132.045 E3.24636
G1 X181.618 Y132.52 E3.27355
G1 X181.734 Y133.018 E3.3007
G1 X181.779 Y133.518 E3.32734
G1 X181.78 Y167.805 E5.14741
G1 X181.771 Y168.532 E5.186
G1 X181.724 Y169.041 E5.21314
G1 X181.599 Y169.538 E5.24034
G1 X181.399 Y170.009 E5.2675
G1 X181.127 Y170.443 E5.29469
G1 X180.792 Y170.829 E5.32182
G1 X180.4 Y171.158 E5.34899
G1 X179.962 Y171.423 E5.37616
G1 X179.488 Y171.616 E5.40333
G1 X178.989 Y171.733 E5.43054
G1 X178.484 Y171.779 E5.45745
G1 X124.165 Y171.78 E8.34088
G1 X123.467 Y171.771 E8.37794
G1 X122.957 Y171.724 E8.40512
G1 X122.461 Y171.599 E8.43227
G1 X121.99 Y171.398 E8.45946
G1 X121.556 Y171.126 E8.48665
G1 X121.17 Y170.79 E8.51381
G1 X120.841 Y170.398 E8.54098
G1 X120.576 Y169.96 E8.56815
G1 X120.384 Y169.486 E8.5953
G1 X120.267 Y168.988 E8.62246
G1 X120.221 Y168.481 E8.64948
G1 X120.22 Y134.13 E10.47294
G1 X120.229 Y133.465 E10.50824
G1 X120.276 Y132.955 E10.53543
G1 X120.402 Y132.459 E10.5626
G1 X120.603 Y131.988 E10.58978
G1 X120.875 Y131.554 E10.61697
G1 X121.211 Y131.168 E10.64413
M204 S3000
M205 X10 Y10
G0 F6000 X120.818 Y130.766
M204 S300
M205 X8 Y8
G1 F2400 X121.278 Y130.381 E10.67598
G1 X121.789 Y130.074 E10.70762
G1 X122.348 Y129.847 E10.73965
G1 X122.964 Y129.708 E10.77317
G1 X123.468 Y129.663 E10.80003
G1 X177.848 Y129.66 E13.68669
G1 X178.59 Y129.672 E13.72609
G1 X179.143 Y129.724 E13.75557
G1 X179.723 Y129.871 E13.78733
G1 X180.274 Y130.107 E13.81915
G1 X180.783 Y130.427 E13.85107
G1 X181.235 Y130.821 E13.88289
G1 X181.62 Y131.281 E13.91474
G1 X181.928 Y131.792 E13.94641
G1 X182.154 Y132.351 E13.97842
G1 X182.292 Y132.968 E14.01198
G1 X182.337 Y133.468 E14.03863
G1 X182.34 Y167.812 E15.86171
G1 X182.329 Y168.583 E15.90265
G1 X182.278 Y169.134 E15.93202
G1 X182.132 Y169.714 E15.96377
G1 X181.895 Y170.272 E15.99595
G1 X181.579 Y170.776 E16.02753
G1 X181.186 Y171.23 E16.0594
G1 X180.727 Y171.614 E16.09117
G1 X180.213 Y171.926 E16.12309
G1 X179.659 Y172.151 E16.15483
G1 X179.04 Y172.291 E16.18852
G1 X178.535 Y172.337 E16.21544
G1 X124.158 Y172.34 E19.10194
G1 X123.416 Y172.329 E19.14133
G1 X122.864 Y172.278 E19.17076
G1 X122.281 Y172.131 E19.20267
G1 X121.729 Y171.895 E19.23454
G1 X121.223 Y171.579 E19.26621
G1 X120.768 Y171.183 E19.29823
G1 X120.385 Y170.725 E19.32992
G1 X120.074 Y170.212 E19.36177
G1 X119.848 Y169.654 E19.39372
G1 X119.709 Y169.039 E19.42719
G1 X119.663 Y168.532 E19.45422
G1 X119.66 Y134.122 E21.28081
G1 X119.671 Y133.414 E21.3184
G1 X119.722 Y132.86 E21.34793
G1 X119.869 Y132.281 E21.37964
G1 X120.106 Y131.727 E21.41163
G1 X120.422 Y131.221 E21.44329
G1 X120.818 Y130.766 E21.47531
M204 S3000
M205 X10 Y10
G1 F2400 E15.47531
;MESH:DC31_Cnet_Badge_Display_Stand-Body.stl
G0 F6000 X123.914 Y132.835
G0 X123.914 Y133.914
G0 X177.1 Y167.1
M204 S300
M205 X8 Y8
;TYPE:WALL-INNER
G1 F2400 E21.47531
G1 F2700 X177.1 Y134.9 E23.18459
G1 X124.9 Y134.9 E25.95553
G1 X124.9 Y167.1 E27.66481
G1 X177.1 Y167.1 E30.43575
M204 S3000
M205 X10 Y10
G0 F6000 X177.66 Y167.66
M204 S300
M205 X8 Y8
G1 F2700 X177.66 Y134.34 E32.20448
G1 X124.34 Y134.34 E35.03488
G1 X124.34 Y167.66 E36.80361
G1 X177.66 Y167.66 E39.63401
M204 S3000
M205 X10 Y10
G0 F6000 X178.22 Y168.22
M204 S300
M205 X8 Y8
;TYPE:WALL-OUTER
G1 F2700 X178.22 Y133.78 E41.46219
G1 X123.78 Y133.78 E44.35204
G1 X123.78 Y168.22 E46.18022
G1 X178.22 Y168.22 E49.07007
M204 S3000
M205 X10 Y10
G0 F6000 X178.22 Y168.02
G0 X177.63 Y167.63
G0 X176.56 Y166.56
M204 S300
M205 X8 Y8
;TYPE:SKIN
G1 F2700 X125.44 Y166.56 E51.78368
G1 X125.44 Y135.44 E53.43563
G1 X176.56 Y135.44 E56.14924
G1 X176.56 Y166.56 E57.80119
M204 S3000
M205 X10 Y10
G0 F6000 X176.279 Y135.889
M204 S300
M205 X8 Y8
G1 F2700 X176.109 Y135.719 E57.81395
M204 S3000
M205 X10 Y10
G0 F6000 X175.317 Y135.719
M204 S300
M205 X8 Y8
G1 F2700 X176.279 Y136.681 E57.88617
M204 S3000
M205 X10 Y10
G0 F6000 X176.279 Y137.473
M204 S300
M205 X8 Y8
G1 F2700 X174.525 Y135.719 E58.01785
M204 S3000
M205 X10 Y10
G0 F6000 X173.734 Y135.719
M204 S300
M205 X8 Y8
G1 F2700 X176.279 Y138.265 E58.20894
M204 S3000
M205 X10 Y10
G0 F6000 X176.279 Y139.057
M204 S300
M205 X8 Y8
G1 F2700 X172.942 Y135.719 E58.45949
M204 S3000
M205 X10 Y10
G0 F6000 X172.15 Y135.719
M204 S300
M205 X8 Y8
G1 F2700 X176.279 Y139.849 E58.76949
M204 S3000
M205 X10 Y10
G0 F6000 X176.279 Y140.641
M204 S300
M205 X8 Y8
G1 F2700 X171.358 Y135.719 E59.13896
M204 S3000
M205 X10 Y10
G0 F6000 X170.566 Y135.719
M204 S300
M205 X8 Y8
G1 F2700 X176.279 Y141.433 E59.56787
M204 S3000
M205 X10 Y10
G0 F6000 X176.279 Y142.225
M204 S300
M205 X8 Y8
G1 F2700 X169.774 Y135.719 E60.05625
M204 S3000
M205 X10 Y10
G0 F6000 X168.982 Y135.719
M204 S300
M205 X8 Y8
G1 F2700 X176.279 Y143.017 E60.60408
M204 S3000
M205 X10 Y10
G0 F6000 X176.279 Y143.809
M204 S300
M205 X8 Y8
G1 F2700 X168.19 Y135.719 E61.21136
M204 S3000
M205 X10 Y10
G0 F6000 X167.398 Y135.719
M204 S300
M205 X8 Y8
G1 F2700 X176.279 Y144.601 E61.87811
M204 S3000
M205 X10 Y10
G0 F6000 X176.279 Y145.393
M204 S300
M205 X8 Y8
G1 F2700 X166.606 Y135.719 E62.60431
M204 S3000
M205 X10 Y10
G0 F6000 X165.814 Y135.719
M204 S300
M205 X8 Y8
G1 F2700 X176.279 Y146.185 E63.38996
M204 S3000
M205 X10 Y10
G0 F6000 X176.279 Y146.977
M204 S300
M205 X8 Y8
G1 F2700 X165.022 Y135.719 E64.23507
M204 S3000
M205 X10 Y10
G0 F6000 X164.23 Y135.719
M204 S300
M205 X8 Y8
G1 F2700 X176.279 Y147.769 E65.13964
M204 S3000
M205 X10 Y10
G0 F6000 X176.279 Y148.561
M204 S300
M205 X8 Y8
G1 F2700 X163.438 Y135.719 E66.10366
M204 S3000
M205 X10 Y10
G0 F6000 X162.646 Y135.719
M204 S300
M205 X8 Y8
G1 F2700 X176.279 Y149.352 E67.1271
M204 S3000
M205 X10 Y10
G0 F6000 X176.279 Y150.144
M204 S300
M205 X8 Y8
G1 F2700 X161.854 Y135.719 E68.21
M204 S3000
M205 X10 Y10
G0 F6000 X161.062 Y135.719
M204 S300
M205 X8 Y8
G1 F2700 X176.279 Y150.936 E69.35236
M204 S3000
M205 X10 Y10
G0 F6000 X176.279 Y151.728
M204 S300
M205 X8 Y8
G1 F2700 X160.27 Y135.719 E70.55417
M204 S3000
M205 X10 Y10
G0 F6000 X159.478 Y135.719
M204 S300
M205 X8 Y8
G1 F2700 X176.279 Y152.52 E71.81544
M204 S3000
M205 X10 Y10
G0 F6000 X176.279 Y153.312
M204 S300
M205 X8 Y8
G1 F2700 X158.686 Y135.719 E73.13616
M204 S3000
M205 X10 Y10
G0 F6000 X157.894 Y135.719
M204 S300
M205 X8 Y8
G1 F2700 X176.279 Y154.104 E74.51634
M204 S3000
M205 X10 Y10
G0 F6000 X176.279 Y154.896
M204 S300
M205 X8 Y8
G1 F2700 X157.102 Y135.719 E75.95597
M204 S3000
M205 X10 Y10
G0 F6000 X156.31 Y135.719
M204 S300
M205 X8 Y8
G1 F2700 X176.279 Y155.688 E77.45507
M204 S3000
M205 X10 Y10
G0 F6000 X176.279 Y156.48
M204 S300
M205 X8 Y8
G1 F2700 X155.518 Y135.719 E79.01361
M204 S3000
M205 X10 Y10
G0 F6000 X154.726 Y135.719
M204 S300
M205 X8 Y8
G1 F2700 X176.279 Y157.272 E80.63162
M204 S3000
M205 X10 Y10
G0 F6000 X176.279 Y158.064
M204 S300
M205 X8 Y8
G1 F2700 X153.935 Y135.719 E82.30904
M204 S3000
M205 X10 Y10
G0 F6000 X153.143 Y135.719
M204 S300
M205 X8 Y8
G1 F2700 X176.279 Y158.856 E84.04592
M204 S3000
M205 X10 Y10
G0 F6000 X176.279 Y159.648
M204 S300
M205 X8 Y8
G1 F2700 X152.351 Y135.719 E85.84225
M204 S3000
M205 X10 Y10
G0 F6000 X151.559 Y135.719
M204 S300
M205 X8 Y8
G1 F2700 X176.279 Y160.44 E87.69805
M204 S3000
M205 X10 Y10
G0 F6000 X176.279 Y161.232
M204 S300
M205 X8 Y8
G1 F2700 X150.767 Y135.719 E89.61329
M204 S3000
M205 X10 Y10
G0 F6000 X149.975 Y135.719
M204 S300
M205 X8 Y8
G1 F2700 X176.279 Y162.024 E91.588
M204 S3000
M205 X10 Y10
G0 F6000 X176.279 Y162.816
M204 S300
M205 X8 Y8
G1 F2700 X149.183 Y135.719 E93.62216
M204 S3000
M205 X10 Y10
G0 F6000 X148.391 Y135.719
M204 S300
M205 X8 Y8
G1 F2700 X176.279 Y163.608 E95.71577
M204 S3000
M205 X10 Y10
G0 F6000 X176.279 Y164.4
M204 S300
M205 X8 Y8
G1 F2700 X147.599 Y135.719 E97.86885
M204 S3000
M205 X10 Y10
G0 F6000 X146.807 Y135.719
M204 S300
M205 X8 Y8
G1 F2700 X176.279 Y165.192 E100.08137
M204 S3000
M205 X10 Y10
G0 F6000 X176.279 Y165.984
M204 S300
M205 X8 Y8
G1 F2700 X146.015 Y135.719 E102.35336
M204 S3000
M205 X10 Y10
G0 F6000 X145.223 Y135.719
M204 S300
M205 X8 Y8
G1 F2700 X175.783 Y166.279 E104.64753
M204 S3000
M205 X10 Y10
G0 F6000 X174.991 Y166.279
M204 S300
M205 X8 Y8
G1 F2700 X144.431 Y135.719 E106.94169
M204 S3000
M205 X10 Y10
G0 F6000 X143.639 Y135.719
M204 S300
M205 X8 Y8
G1 F2700 X174.199 Y166.279 E109.23586
M204 S3000
M205 X10 Y10
G0 F6000 X173.407 Y166.279
M204 S300
M205 X8 Y8
G1 F2700 X142.847 Y135.719 E111.53003
M204 S3000
M205 X10 Y10
G0 F6000 X142.055 Y135.719
M204 S300
M205 X8 Y8
G1 F2700 X172.615 Y166.279 E113.8242
M204 S3000
M205 X10 Y10
G0 F6000 X171.823 Y166.279
M204 S300
M205 X8 Y8
G1 F2700 X141.263 Y135.719 E116.11837
M204 S3000
M205 X10 Y10
G0 F6000 X140.471 Y135.719
M204 S300
M205 X8 Y8
G1 F2700 X171.031 Y166.279 E118.41254
M204 S3000
M205 X10 Y10
G0 F6000 X170.239 Y166.279
M204 S300
M205 X8 Y8
G1 F2700 X139.679 Y135.719 E120.7067
M204 S3000
M205 X10 Y10
G0 F6000 X138.887 Y135.719
M204 S300
M205 X8 Y8
G1 F2700 X169.447 Y166.279 E123.00087
M204 S3000
M205 X10 Y10
G0 F6000 X168.655 Y166.279
M204 S300
M205 X8 Y8
G1 F2700 X138.095 Y135.719 E125.29504
M204 S3000
M205 X10 Y10
G0 F6000 X137.303 Y135.719
M204 S300
M205 X8 Y8
G1 F2700 X167.863 Y166.279 E127.58921
M204 S3000
M205 X10 Y10
G0 F6000 X167.071 Y166.279
M204 S300
M205 X8 Y8
G1 F2700 X136.511 Y135.719 E129.88338
M204 S3000
M205 X10 Y10
G0 F6000 X135.719 Y135.719
M204 S300
M205 X8 Y8
G1 F2700 X166.279 Y166.279 E132.17754
M204 S3000
M205 X10 Y10
G0 F6000 X165.487 Y166.279
M204 S300
M205 X8 Y8
G1 F2700 X134.927 Y135.719 E134.47171
M204 S3000
M205 X10 Y10
G0 F6000 X134.136 Y135.719
M204 S300
M205 X8 Y8
G1 F2700 X164.695 Y166.279 E136.76584
M204 S3000
M205 X10 Y10
G0 F6000 X163.903 Y166.279
M204 S300
M205 X8 Y8
G1 F2700 X133.344 Y135.719 E139.05997
M204 S3000
M205 X10 Y10
G0 F6000 X132.552 Y135.719
M204 S300
M205 X8 Y8
G1 F2700 X163.111 Y166.279 E141.3541
M204 S3000
M205 X10 Y10
G0 F6000 X162.319 Y166.279
M204 S300
M205 X8 Y8
G1 F2700 X131.76 Y135.719 E143.64823
M204 S3000
M205 X10 Y10
G0 F6000 X130.968 Y135.719
M204 S300
M205 X8 Y8
G1 F2700 X161.527 Y166.279 E145.94237
M204 S3000
M205 X10 Y10
G0 F6000 X160.735 Y166.279
M204 S300
M205 X8 Y8
G1 F2700 X130.176 Y135.719 E148.2365
M204 S3000
M205 X10 Y10
G0 F6000 X129.384 Y135.719
M204 S300
M205 X8 Y8
G1 F2700 X159.944 Y166.279 E150.53066
M204 S3000
M205 X10 Y10
G0 F6000 X159.152 Y166.279
M204 S300
M205 X8 Y8
G1 F2700 X128.592 Y135.719 E152.82483
M204 S3000
M205 X10 Y10
G0 F6000 X127.8 Y135.719
M204 S300
M205 X8 Y8
G1 F2700 X158.36 Y166.279 E155.119
M204 S3000
M205 X10 Y10
G0 F6000 X157.568 Y166.279
M204 S300
M205 X8 Y8
G1 F2700 X127.008 Y135.719 E157.41317
M204 S3000
M205 X10 Y10
G0 F6000 X126.216 Y135.719
M204 S300
M205 X8 Y8
G1 F2700 X156.776 Y166.279 E159.70734
M204 S3000
M205 X10 Y10
G0 F6000 X155.984 Y166.279
M204 S300
M205 X8 Y8
G1 F2700 X125.719 Y136.014 E161.97936
M204 S3000
M205 X10 Y10
G0 F6000 X125.719 Y136.806
M204 S300
M205 X8 Y8
G1 F2700 X155.192 Y166.279 E164.19192
M204 S3000
M205 X10 Y10
G0 F6000 X154.4 Y166.279
M204 S300
M205 X8 Y8
G1 F2700 X125.719 Y137.598 E166.34503
M204 S3000
M205 X10 Y10
G0 F6000 X125.719 Y138.39
M204 S300
M205 X8 Y8
G1 F2700 X153.608 Y166.279 E168.43869
M204 S3000
M205 X10 Y10
G0 F6000 X152.816 Y166.279
M204 S300
M205 X8 Y8
G1 F2700 X125.719 Y139.182 E170.47289
M204 S3000
M205 X10 Y10
G0 F6000 X125.719 Y139.974
M204 S300
M205 X8 Y8
G1 F2700 X152.024 Y166.279 E172.44763
M204 S3000
M205 X10 Y10
G0 F6000 X151.232 Y166.279
M204 S300
M205 X8 Y8
G1 F2700 X125.719 Y140.766 E174.36291
M204 S3000
M205 X10 Y10
G0 F6000 X125.719 Y141.558
M204 S300
M205 X8 Y8
G1 F2700 X150.44 Y166.279 E176.21874
M204 S3000
M205 X10 Y10
G0 F6000 X149.648 Y166.279
M204 S300
M205 X8 Y8
G1 F2700 X125.719 Y142.35 E178.01511
M204 S3000
M205 X10 Y10
G0 F6000 X125.719 Y143.142
M204 S300
M205 X8 Y8
G1 F2700 X148.856 Y166.279 E179.75203
M204 S3000
M205 X10 Y10
G0 F6000 X148.064 Y166.279
M204 S300
M205 X8 Y8
G1 F2700 X125.719 Y143.934 E181.42949
M204 S3000
M205 X10 Y10
G0 F6000 X125.719 Y144.726
M204 S300
M205 X8 Y8
G1 F2700 X147.272 Y166.279 E183.04749
M204 S3000
M205 X10 Y10
G0 F6000 X146.48 Y166.279
M204 S300
M205 X8 Y8
G1 F2700 X125.719 Y145.518 E184.60604
M204 S3000
M205 X10 Y10
G0 F6000 X125.719 Y146.31
M204 S300
M205 X8 Y8
G1 F2700 X145.688 Y166.279 E186.10513
M204 S3000
M205 X10 Y10
G0 F6000 X144.896 Y166.279
M204 S300
M205 X8 Y8
G1 F2700 X125.719 Y147.102 E187.54477
M204 S3000
M205 X10 Y10
G0 F6000 X125.719 Y147.894
M204 S300
M205 X8 Y8
G1 F2700 X144.104 Y166.279 E188.92495
M204 S3000
M205 X10 Y10
G0 F6000 X143.312 Y166.279
M204 S300
M205 X8 Y8
G1 F2700 X125.719 Y148.686 E190.24567
M204 S3000
M205 X10 Y10
G0 F6000 X125.719 Y149.478
M204 S300
M205 X8 Y8
G1 F2700 X142.52 Y166.279 E191.50694
M204 S3000
M205 X10 Y10
G0 F6000 X141.728 Y166.279
M204 S300
M205 X8 Y8
G1 F2700 X125.719 Y150.27 E192.70875
M204 S3000
M205 X10 Y10
G0 F6000 X125.719 Y151.062
M204 S300
M205 X8 Y8
G1 F2700 X140.936 Y166.279 E193.8511
M204 S3000
M205 X10 Y10
G0 F6000 X140.145 Y166.279
M204 S300
M205 X8 Y8
G1 F2700 X125.719 Y151.854 E194.93404
M204 S3000
M205 X10 Y10
G0 F6000 X125.719 Y152.645
M204 S300
M205 X8 Y8
G1 F2700 X139.353 Y166.279 E195.95756
M204 S3000
M205 X10 Y10
G0 F6000 X138.561 Y166.279
M204 S300
M205 X8 Y8
G1 F2700 X125.719 Y153.437 E196.92162
M204 S3000
M205 X10 Y10
G0 F6000 X125.719 Y154.229
M204 S300
M205 X8 Y8
G1 F2700 X137.769 Y166.279 E197.82622
M204 S3000
M205 X10 Y10
G0 F6000 X136.977 Y166.279
M204 S300
M205 X8 Y8
G1 F2700 X125.719 Y155.021 E198.67137
M204 S3000
M205 X10 Y10
G0 F6000 X125.719 Y155.813
M204 S300
M205 X8 Y8
G1 F2700 X136.185 Y166.279 E199.45706
M204 S3000
M205 X10 Y10
G0 F6000 X135.393 Y166.279
M204 S300
M205 X8 Y8
G1 F2700 X125.719 Y156.605 E200.1833
M204 S3000
M205 X10 Y10
G0 F6000 X125.719 Y157.397
M204 S300
M205 X8 Y8
G1 F2700 X134.601 Y166.279 E200.85008
M204 S3000
M205 X10 Y10
G0 F6000 X133.809 Y166.279
